packages/foundations/assets/icons/functional/images/accessibility/person_with_rollator.svg

<svg xmlns="http://www.w3.org/2000/svg" width="32" height="32" fill="none"><path fill="#1A1C1F" fill-rule="evenodd" d="M11.639 2.104c-.766.185-1.628.876-1.971 1.579-.696 1.425-.266 3.073 1.027 3.938 1.659 1.11 3.833.417 4.585-1.461.18-.449.242-1.238.136-1.725-.235-1.077-1.166-2.051-2.224-2.324-.389-.1-1.154-.104-1.553-.007m1.188 1.995c.586.267.806.914.508 1.499-.485.949-1.983.582-1.983-.485 0-.343.055-.5.254-.737a1.045 1.045 0 0 1 1.221-.277M9.302 9.755c-.345.156-1.198 1.172-1.822 2.17-.988 1.578-1.462 3.264-1.294 4.603.107.853.397 1.629.857 2.299.111.161.805.893 1.543 1.626a97 97 0 0 1 1.818 1.847l.476.514.53 3.236c.365 2.232.561 3.297.631 3.433.297.575 1.096.686 1.565.218.387-.387.396-.227-.245-4.154-.314-1.922-.601-3.566-.638-3.655s-.968-1.073-2.068-2.188c-1.457-1.476-2.038-2.1-2.137-2.295-.466-.919-.433-2.097.092-3.322.216-.504.664-1.282.976-1.697l.208-.277 1.036 1.04c.57.573 1.133 1.097 1.25 1.167.125.073.797.275 1.618.486 1.34.344 1.416.357 1.653.294.729-.194 1.005-1.09.499-1.625-.218-.231-.326-.271-1.582-.589l-1.167-.296-1.393-1.387c-.897-.892-1.462-1.415-1.589-1.468a1.02 1.02 0 0 0-.817.02m8.271 4.347a1.1 1.1 0 0 0-.503.528c-.156.414.018.957.386 1.2.203.135.262.145.989.17l.774.027.431 1.707c.273 1.083.469 1.758.537 1.847.058.078.189.198.289.267.179.123.213.126 1.741.152l1.558.027-2.364 2.711c-1.3 1.491-2.389 2.785-2.421 2.874a.99.99 0 0 0 .281 1.093c.348.306.805.345 1.17.101.095-.064.688-.706 1.319-1.428s1.154-1.306 1.164-1.297c.009.008.133.471.274 1.028s.3 1.075.35 1.153c.215.327.673.503 1.052.402.437-.116.782-.52.785-.919.001-.112-.688-2.987-.828-3.456-.016-.054.393-.565 1.146-1.43.724-.832 1.195-1.418 1.234-1.535.094-.288.037-.673-.133-.896-.297-.39-.172-.372-2.722-.401L21.787 18l-.427-1.68c-.255-1.005-.474-1.756-.544-1.869a1.1 1.1 0 0 0-.327-.306c-.201-.113-.266-.118-1.483-.116-.944.001-1.314.02-1.433.073m-11.118 6.74c-.417.23-.396.171-1.464 4.234-.545 2.074-.99 3.838-.99 3.92.003.373.334.797.722.925.41.135.975-.103 1.157-.488.143-.303 2.013-7.489 2.013-7.736 0-.294-.133-.553-.388-.757-.264-.212-.76-.257-1.05-.098m10.655 6.217a1.51 1.51 0 0 0-1.109 1.448c0 .683.468 1.264 1.165 1.442.298.076.357.076.656 0 .666-.171 1.098-.67 1.151-1.33q.05-.636-.336-1.088c-.353-.412-1.013-.616-1.527-.472m9.063-.017c-.677.168-1.099.66-1.148 1.337a1.47 1.47 0 0 0 2.569 1.115c.396-.423.501-.969.293-1.525-.254-.679-1.027-1.097-1.714-.927"/></svg>

<svg width="32" height="32" viewBox="0 0 32 32" fill="none" xmlns="http://www.w3.org/2000/svg"><path d="M11.639 2.104 C 10.873 2.289,10.011 2.980,9.668 3.683 C 8.972 5.108,9.402 6.756,10.695 7.621 C 12.354 8.731,14.528 8.038,15.280 6.160 C 15.460 5.711,15.522 4.922,15.416 4.435 C 15.181 3.358,14.250 2.384,13.192 2.111 C 12.803 2.011,12.038 2.007,11.639 2.104 M12.827 4.099 C 13.413 4.366,13.633 5.013,13.335 5.598 C 12.850 6.547,11.352 6.180,11.352 5.113 C 11.352 4.770,11.407 4.613,11.606 4.376 C 11.902 4.024,12.409 3.909,12.827 4.099 M9.302 9.755 C 8.957 9.911,8.104 10.927,7.480 11.925 C 6.492 13.503,6.018 15.189,6.186 16.528 C 6.293 17.381,6.583 18.157,7.043 18.827 C 7.154 18.988,7.848 19.720,8.586 20.453 C 9.324 21.187,10.142 22.018,10.404 22.300 L 10.880 22.814 11.410 26.050 C 11.775 28.282,11.971 29.347,12.041 29.483 C 12.338 30.058,13.137 30.169,13.606 29.701 C 13.993 29.314,14.002 29.474,13.361 25.547 C 13.047 23.625,12.760 21.981,12.723 21.892 C 12.686 21.804,11.755 20.819,10.655 19.704 C 9.198 18.228,8.617 17.604,8.518 17.409 C 8.052 16.490,8.085 15.312,8.610 14.087 C 8.826 13.583,9.274 12.805,9.586 12.390 L 9.794 12.113 10.830 13.153 C 11.400 13.726,11.963 14.250,12.080 14.320 C 12.205 14.393,12.877 14.595,13.698 14.806 C 15.038 15.150,15.114 15.163,15.351 15.100 C 16.080 14.906,16.356 14.010,15.850 13.475 C 15.632 13.244,15.524 13.204,14.268 12.886 L 13.101 12.590 11.708 11.203 C 10.811 10.311,10.246 9.788,10.119 9.735 C 9.859 9.627,9.569 9.634,9.302 9.755 M17.573 14.102 C 17.375 14.191,17.145 14.432,17.070 14.630 C 16.914 15.044,17.088 15.587,17.456 15.830 C 17.659 15.965,17.718 15.975,18.445 16.000 L 19.219 16.027 19.650 17.734 C 19.923 18.817,20.119 19.492,20.187 19.581 C 20.245 19.659,20.376 19.779,20.476 19.848 C 20.655 19.971,20.689 19.974,22.217 20.000 L 23.775 20.027 21.411 22.738 C 20.111 24.229,19.022 25.523,18.990 25.612 C 18.850 26.015,18.957 26.429,19.271 26.705 C 19.619 27.011,20.076 27.050,20.441 26.806 C 20.536 26.742,21.129 26.100,21.760 25.378 C 22.391 24.656,22.914 24.072,22.924 24.081 C 22.933 24.089,23.057 24.552,23.198 25.109 C 23.340 25.666,23.498 26.184,23.548 26.262 C 23.763 26.589,24.221 26.765,24.600 26.664 C 25.037 26.548,25.382 26.144,25.385 25.745 C 25.386 25.633,24.697 22.758,24.557 22.289 C 24.541 22.235,24.950 21.724,25.703 20.859 C 26.427 20.027,26.898 19.441,26.937 19.324 C 27.031 19.036,26.974 18.651,26.804 18.428 C 26.507 18.038,26.632 18.056,24.082 18.027 L 21.787 18.000 21.360 16.320 C 21.105 15.315,20.886 14.564,20.816 14.451 C 20.751 14.347,20.604 14.210,20.489 14.145 C 20.288 14.032,20.223 14.027,19.006 14.029 C 18.062 14.030,17.692 14.049,17.573 14.102 M6.455 20.842 C 6.038 21.072,6.059 21.013,4.991 25.076 C 4.446 27.150,4.001 28.914,4.001 28.996 C 4.004 29.369,4.335 29.793,4.723 29.921 C 5.133 30.056,5.698 29.818,5.880 29.433 C 6.023 29.130,7.893 21.944,7.893 21.697 C 7.893 21.403,7.760 21.144,7.505 20.940 C 7.241 20.728,6.745 20.683,6.455 20.842 M17.110 27.059 C 16.455 27.242,16.001 27.835,16.001 28.507 C 16.001 29.190,16.469 29.771,17.166 29.949 C 17.464 30.025,17.523 30.025,17.822 29.949 C 18.488 29.778,18.920 29.279,18.973 28.619 C 19.007 28.196,18.894 27.831,18.637 27.531 C 18.284 27.119,17.624 26.915,17.110 27.059 M26.173 27.042 C 25.496 27.210,25.074 27.702,25.025 28.379 C 24.922 29.822,26.605 30.552,27.594 29.494 C 27.990 29.071,28.095 28.525,27.887 27.969 C 27.633 27.290,26.860 26.872,26.173 27.042 " fill="#1A1C1F" stroke="none" fill-rule="evenodd"></path></svg>
